X:1
T:Anchored Fast
T:Anchored Fast
T:John Edgar Gould
T:William Pratt Breed, 1869
T:Public Domain Courtesy of the Cyber Hymnal™
T:Public Domain Courtesy of the Cyber Hymnal™
C:John Edgar Gould
Z:Public Domain
Z:Courtesy of the Cyber Hymnal™
%%score ( 1 2 ) ( 3 4 )
L:1/8
Q:1/4=95
M:4/4
K:Ab
V:1 treble 
V:2 treble 
V:3 bass 
V:4 bass 
V:1
 [Ec]>[Ec] [DB]>[Ec] [CA]2 [CE]2 | [DF]>[DF] [DA]>[DA] [CE]4 | [Ec]>[Ec] [DB]>[Ec] [CA]2 [CE]2 | %3
w: 1.~Toss- ing on the bil- low,|Rock- ing in the blast,|Sick- ening on the pil- low,|
w: 2.~Skies all clad in sa- ble,|Storm clouds scud- ding past,|Cling- ing to the ca- ble,|
w: 3.~Gone each earth- ly trea- sure,|Cut a- way each mast,|Van- ished earth- ly plea- sure,|
w: 4.~Sor- rows mul- ti- ply- ing,|Pros- pects o- ver- cast,|Weep- ing, groan- ing, sigh- ing,|
w: 5.~Swift- ly to my grave- bed,|I am mak- ing haste!|Tremb- ling ’neath the death- dread,|
 [DF]>[DA] [DG]>[DB] [CA]4 ||"^Refrain" [Ee]>[Ee] [Ee]>[Ee] [Ee]2 [Ec]2 | %5
w: Verg- ing toward the last.||
w: I am an- chored fast.||
w: Still I’m an- chored fast.|While the tem- pest rag- es,|
w: Still I’m an- chored fast.||
w: Still I’m an- chored fast.||
 [Ed]>[Ed] [Ed]>[Ed] [Ed]2 [EB]2 | [Ec]2 [EA]2 [DF]2 [FB]2 | (A4 G4) | %8
w: |||
w: |||
w: To the Rock of Ag- es,|I am an- chored|fast; *|
w: |||
w: |||
 [Ee]>[Ee] [Ee]>[Ee] [Ee]2 [Ec]2 | [Ed]>[Ed] [Ed]>[Ed] [Ed]2 [EB]2 | [Ec]2 (dB) [EA]2 [DG]2 | %11
w: |||
w: |||
w: While the tem- pest rag- es,|To the Rock of Ag- es,|I am * an- chored|
w: |||
w: |||
 [CA]6 z2 |] %12
w: |
w: |
w: fast.|
w: |
w: |
V:2
 x8 | x8 | x8 | x8 || x8 | x8 | x8 | E8 | x8 | x8 | x2 F2 x4 | x8 |] %12
V:3
 [A,,A,]>[A,,A,] [A,,A,]>[A,,A,] [A,,A,]2 [A,,A,]2 | [D,A,]>[D,A,] [F,A,]>[F,A,] A,4 | %2
 [A,,A,]>[A,,A,] [A,,A,]>[A,,A,] [A,,A,]2 [A,,A,]2 | [D,A,]>[D,F,] E,>[E,G,] [A,,A,]4 || %4
 [A,C]>[A,C] [A,C]>[A,C] [A,C]2 A,2 | [E,B,]>[E,B,] [E,B,]>[E,B,] [E,B,]2 [E,G,]2 | %6
 [A,,A,]2 [C,A,]2 [D,A,]2 [B,,B,]2 | (C4 B,4) | [A,C]>[A,C] [A,C]>[A,C] [A,C]2 A,2 | %9
 [E,B,]>[E,B,] [E,B,]>[E,B,] [E,B,]2 [E,G,]2 | A,2 (A,D) [E,C]2 [E,B,]2 | [A,,A,]6 z2 |] %12
V:4
 x8 | x4 A,4 | x8 | x2 E,3/2 x9/2 || x6 A,2 | x8 | x8 | E,8 | x6 A,2 | x8 | A,2 D,2 x4 | x8 |] %12

